X: 33617
T: Rakish Paddy
R: reel
M: 4/4
K: Dmixolydian
|:c2ABc2AB|cBAG FED2|Add^c dfed|d^cBA FGAB|
c2ABc2AB|cBAG FED2|DEFG ABcA|dcAG FED2:|
|:egg2egg2|egg2 ed^cd|eaa2eaa2|eaa2ed^cd|
efge afge|f2e2defg|afge defe|dcAG FED2:|

